assets/icons/qvision/satellite.svg

<svg xmlns="http://www.w3.org/2000/svg" height="24" viewBox="0 0 24 24" width="24"><path d="M0 0h24v24H0z" fill="none"/><path d="M19 3H5c-1.1 0-2 .9-2 2v14c0 1.1.9 2 2 2h14c1.1 0 2-.9 2-2V5c0-1.1-.9-2-2-2zM5 4.99h3C8 6.65 6.66 8 5 8V4.99zM5 12v-2c2.76 0 5-2.25 5-5.01h2C12 8.86 8.87 12 5 12zm0 6l3.5-4.5 2.5 3.01L14.5 12l4.5 6H5z"/></svg>

<svg width="24" height="24" viewBox="0 0 24 24" fill="none" xmlns="http://www.w3.org/2000/svg">
<g clip-path="url(#clip0_147_5622)">
<path d="M19 3H5C3.9 3 3 3.9 3 5V19C3 20.1 3.9 21 5 21H19C20.1 21 21 20.1 21 19V5C21 3.9 20.1 3 19 3ZM5 4.99H8C8 6.65 6.66 8 5 8V4.99ZM5 12V10C7.76 10 10 7.75 10 4.99H12C12 8.86 8.87 12 5 12ZM5 18L8.5 13.5L11 16.51L14.5 12L19 18H5Z" fill="#323232"/>
</g>
<defs>
<clipPath id="clip0_147_5622">
<rect width="24" height="24" fill="white"/>
</clipPath>
</defs>
</svg>
